packages/sources/icons/src/vitamix/task-line.svg

<svg width="16" height="16" viewBox="0 0 16 16" fill="none" xmlns="http://www.w3.org/2000/svg">
<path fill-rule="evenodd" clip-rule="evenodd" d="M14 1.99467V14.0053C13.9971 14.3696 13.7023 14.6641 13.338 14.6667H2.662C2.29665 14.6667 2.00037 14.3707 2 14.0053V1.99467C2.00291 1.63037 2.2977 1.33587 2.662 1.33333H13.338C13.7033 1.33333 14 1.62933 14 1.99467ZM12.6667 2.66667H3.33333V13.3333H12.6667V2.66667ZM10.3574 5.91937L7.52872 8.74736L5.87872 7.09736L4.93539 8.04003L7.52872 10.6334L11.3001 6.86203L10.3574 5.91937Z" fill="#001018"/>
</svg>

<svg width="16" height="16" fill="none" xmlns="http://www.w3.org/2000/svg"><path fill-rule="evenodd" clip-rule="evenodd" d="M14 1.995v12.01a.667.667 0 0 1-.662.662H2.662A.662.662 0 0 1 2 14.005V1.995a.667.667 0 0 1 .662-.662h10.676c.365 0 .662.296.662.662zm-1.333.672H3.333v10.666h9.334V2.667zm-2.31 3.252L7.53 8.747l-1.65-1.65-.944.943 2.594 2.593 3.77-3.771-.943-.943z" fill="#001018"/></svg>
